usr/share/icons/biglinux-icons-material/scalable/apps/screen-recorder.svg

<?xml version="1.0" encoding="UTF-8" standalone="no"?>
<svg
   width="24"
   height="24"
   viewBox="0 0 6.349875 6.349875"
   version="1.1"
   id="svg39"
   sodipodi:docname="screen-recorder.svg"
   inkscape:version="1.2.2 (b0a8486541, 2022-12-01)"
   xmlns:inkscape="http://www.inkscape.org/namespaces/inkscape"
   xmlns:sodipodi="http://sodipodi.sourceforge.net/DTD/sodipodi-0.dtd"
   xmlns:xlink="http://www.w3.org/1999/xlink"
   xmlns="http://www.w3.org/2000/svg"
   xmlns:svg="http://www.w3.org/2000/svg">
  <sodipodi:namedview
     id="namedview41"
     pagecolor="#ffffff"
     bordercolor="#000000"
     borderopacity="0.25"
     inkscape:showpageshadow="2"
     inkscape:pageopacity="0.0"
     inkscape:pagecheckerboard="0"
     inkscape:deskcolor="#d1d1d1"
     showgrid="false"
     inkscape:zoom="27.3125"
     inkscape:cx="2.3615561"
     inkscape:cy="9.9588101"
     inkscape:window-width="2560"
     inkscape:window-height="998"
     inkscape:window-x="1680"
     inkscape:window-y="0"
     inkscape:window-maximized="1"
     inkscape:current-layer="svg39" />
  <defs
     id="defs7">
    <linearGradient
       id="a"
       x1="13.229"
       x2="2.1170001"
       y1="297"
       y2="280.07001"
       gradientTransform="matrix(1.0714,0,0,1,-44.882065,-280.56319)"
       gradientUnits="userSpaceOnUse">
      <stop
         stop-color="#66bcff"
         offset="0"
         id="stop2" />
      <stop
         stop-color="#b29aff"
         offset="1"
         id="stop4" />
    </linearGradient>
    <linearGradient
       inkscape:collect="always"
       xlink:href="#b"
       id="linearGradient13453"
       gradientUnits="userSpaceOnUse"
       gradientTransform="matrix(0.11417,0,0,0.11417,12.077766,102.05934)"
       x1="10.583"
       y1="-184.67999"
       x2="225.69"
       y2="-184.67999" />
    <linearGradient
       id="b"
       x1="10.583"
       x2="225.69"
       y1="-184.67999"
       y2="-184.67999"
       gradientTransform="matrix(0.11417,0,0,0.11417,18.557,59.5)"
       gradientUnits="userSpaceOnUse">
      <stop
         stop-color="#fafbfb"
         offset="0"
         id="stop13356" />
      <stop
         stop-color="#fafbfb"
         stop-opacity="0"
         offset="1"
         id="stop13358" />
    </linearGradient>
    <linearGradient
       inkscape:collect="always"
       xlink:href="#c"
       id="linearGradient13455"
       gradientUnits="userSpaceOnUse"
       gradientTransform="matrix(0.0302,0,0,0.0302,12.077766,102.05934)"
       x1="520"
       y1="-620"
       x2="410"
       y2="-620" />
    <linearGradient
       id="c"
       x1="520"
       x2="410"
       y1="-620"
       y2="-620"
       gradientTransform="matrix(0.0302,0,0,0.0302,18.557,59.5)"
       gradientUnits="userSpaceOnUse">
      <stop
         offset="0"
         id="stop13361" />
      <stop
         stop-opacity="0"
         offset="1"
         id="stop13363" />
    </linearGradient>
    <linearGradient
       inkscape:collect="always"
       xlink:href="#a-3"
       id="linearGradient13451"
       gradientUnits="userSpaceOnUse"
       gradientTransform="matrix(0.06391486,0,0,0.06281266,18.411966,5.514299)"
       x1="-240.47"
       y1="-60.605"
       x2="-240.47"
       y2="-29.025999" />
    <linearGradient
       id="a-3"
       x1="-240.47"
       x2="-240.47"
       y1="-60.605"
       y2="-29.025999"
       gradientTransform="matrix(0.96667,0,0,0.95,262.45,67.575)"
       gradientUnits="userSpaceOnUse">
      <stop
         stop-color="#4285db"
         offset="0"
         id="stop13351" />
      <stop
         stop-color="#42b9db"
         offset="1"
         id="stop13353" />
    </linearGradient>
    <radialGradient
       fx="0"
       fy="0"
       cx="0"
       cy="0"
       r="1"
       gradientUnits="userSpaceOnUse"
       gradientTransform="matrix(0,5.8207192,-5.8207192,0,3.1748166,0.2645689)"
       spreadMethod="pad"
       id="radialGradient12763-3">
      <stop
         style="stop-opacity:1;stop-color:#a4a4a4"
         offset="0"
         id="stop12759-6" />
      <stop
         style="stop-opacity:1;stop-color:#626262"
         offset="1"
         id="stop12761-7" />
    </radialGradient>
  </defs>
  <path
     d="m 2.5380659,0.2949075 c 0.031749,0 0.062088,-0.00423 0.091015,-0.012347 0.3802869,-0.025047 0.760574,-0.023636 1.1398025,0.00282 0.3443043,0.027516 0.6776727,0.1019508 1.000458,0.2243622 0.5358591,0.2204818 0.9023879,0.6035909 1.1009979,1.1479164 0.1114755,0.3280768 0.1788548,0.6656785 0.1996681,1.0113939 0.027516,0.4356718 0.017991,0.86958 -0.030338,1.3038408 C 6.0026284,4.277335 5.9239604,4.569429 5.8026072,4.850588 5.5778922,5.33847 5.2127744,5.67466 4.7086648,5.859159 4.3005091,5.997093 3.880359,6.070116 3.4475092,6.077172 2.9624494,6.103282 2.4816228,6.065882 2.0050293,5.968166 1.1298049,5.773789 0.5883018,5.239341 0.3844002,4.365528 0.2976182,3.972894 0.2574027,3.5746158 0.2658692,3.1721042 0.2563492,2.7434879 0.3014992,2.3219266 0.4023915,1.9056571 0.6172289,1.090051 1.1354494,0.5841776 1.9566999,0.3887425 2.1482542,0.3418235 2.342631,0.3100745 2.5380661,0.2949055 Z"
     style="fill:url(#radialGradient12763-3);fill-rule:evenodd;stroke:none;stroke-width:0.35277"
     id="path12765-6" />
  <path
     d="M 3.1749367,3.6328916 2.5643319,4.0908451 c 0,0.5341489 -0.076326,0.5341489 -0.4578237,0.7632559 l 1.0684285,0.0762 1.0684286,-0.07633 C 3.8618672,4.625124 3.7855417,4.625124 3.7855417,4.0907152 Z"
     fill="#b3b3b3"
     id="path13325"
     style="stroke-width:0.130027" />
  <path
     d="M 2.1065082,4.853971 V 5.006622 H 4.2434955 V 4.853971 Z"
     fill="#cccccc"
     id="path13327"
     style="stroke-width:0.130027" />
  <rect
     x="1.1906011"
     y="1.4377023"
     width="3.9686718"
     height="2.6554348"
     ry="0.3107346"
     fill="#303030"
     id="rect13329"
     style="stroke-width:0.12783"
     rx="0.3107346" />
  <rect
     x="1.2574975"
     y="1.5091664"
     width="3.8348784"
     height="2.5125065"
     rx="0.26447439"
     ry="0.25991219"
     fill="url(#a)"
     id="rect13431"
     style="fill:url(#linearGradient13451);stroke-width:0.0661186" />
  <g
     id="g14598"
     transform="matrix(0.06609904,0,0,0.06609904,1.4884158,-1.7648464)">
    <path
       d="m 18.119766,83.934342 14.5,-15.708 12.083,15.708 z"
       fill="#1a1a1a"
       id="path13433" />
    <path
       d="m 17.032766,74.387342 -19.0680003,12.246 c 0.694,0.57 1.57700005,0.926 2.55700005,0.926 H 37.845766 l -20.812,-13.172 z"
       fill="#e6e6e6"
       opacity="0.9"
       id="path13435" />
    <path
       d="m 13.286766,87.559342 3.746,-13.171 20.814,13.171 z"
       fill="#fafbfb"
       id="path13437" />
    <path
       d="m 32.620766,67.018342 -4.834,5.135 v 15.406 h 22.734 c 1.094,0 2.08,-0.43 2.8,-1.125 z"
       fill="#b0b2b5"
       id="path13439" />
    <path
       d="m 32.618766,67.016342 6.043,20.543 h 11.859 c 1.094,0 2.08,-0.43 2.8,-1.125 l -20.701,-19.418 z"
       fill="#ffffff"
       id="path13441" />
    <path
       d="m 13.286766,87.559342 3.746,-13.171 20.814,13.171 z"
       fill="url(#b)"
       id="path13443"
       style="fill:url(#linearGradient13453)" />
    <path
       d="m 26.577766,80.429342 v 7.13 h 1.208 v -6.365 z"
       fill="url(#c)"
       opacity="0.35"
       id="path13445"
       style="fill:url(#linearGradient13455)" />
  </g>
  <g
     id="g817"
     transform="matrix(1.1503292,0,0,1.1503292,-0.48564297,-0.39921052)">
    <path
       d="M 3.915024,2.1728312 3.5767986,2.3983148 c -0.010656,0.073101 -0.025148,0.1453495 0,0.2256966 L 3.9152372,2.849495 Z"
       fill="#f9f9f9"
       id="path35-6"
       style="stroke-width:0.213123" />
    <path
       d="m 2.505432,2.0600895 a 0.05626433,0.05626433 0 0 0 -0.056264,0.056264 v 0.7894059 c 0,0.031329 0.025148,0.056477 0.056264,0.056477 h 1.0151023 a 0.05626433,0.05626433 0 0 0 0.056264,-0.056477 V 2.1163537 a 0.05626433,0.05626433 0 0 0 -0.056264,-0.056264 z m 0.5074447,0.1690061 a 0.28196101,0.28196101 0 0 1 0.2819609,0.281961 0.28196101,0.28196101 0 0 1 -0.2819609,0.2819609 0.28196101,0.28196101 0 0 1 -0.281748,-0.2819609 0.28196101,0.28196101 0 0 1 0.281748,-0.281961 z"
       fill="#f9f9f9"
       id="path37-7"
       style="stroke-width:0.213123" />
  </g>
</svg>

<svg xmlns="http://www.w3.org/2000/svg" xmlns:xlink="http://www.w3.org/1999/xlink" width="24" height="24" viewBox="0 0 6.35 6.35"><defs><linearGradient id="e" x1="13.229" x2="2.117" y1="297" y2="280.07" gradientTransform="matrix(1.0714 0 0 1 -44.882 -280.563)" gradientUnits="userSpaceOnUse"><stop offset="0" stop-color="#66bcff"/><stop offset="1" stop-color="#b29aff"/></linearGradient><linearGradient xlink:href="#a" id="g" x1="10.583" x2="225.69" y1="-184.68" y2="-184.68" gradientTransform="translate(12.078 102.06) scale(.11417)" gradientUnits="userSpaceOnUse"/><linearGradient id="a" x1="10.583" x2="225.69" y1="-184.68" y2="-184.68" gradientTransform="translate(18.557 59.5) scale(.11417)" gradientUnits="userSpaceOnUse"><stop offset="0" stop-color="#fafbfb"/><stop offset="1" stop-color="#fafbfb" stop-opacity="0"/></linearGradient><linearGradient xlink:href="#b" id="h" x1="520" x2="410" y1="-620" y2="-620" gradientTransform="translate(12.078 102.06) scale(.0302)" gradientUnits="userSpaceOnUse"/><linearGradient id="b" x1="520" x2="410" y1="-620" y2="-620" gradientTransform="translate(18.557 59.5) scale(.0302)" gradientUnits="userSpaceOnUse"><stop offset="0"/><stop offset="1" stop-opacity="0"/></linearGradient><linearGradient xlink:href="#c" id="f" x1="-240.47" x2="-240.47" y1="-60.605" y2="-29.026" gradientTransform="matrix(.06391 0 0 .06281 18.412 5.514)" gradientUnits="userSpaceOnUse"/><linearGradient id="c" x1="-240.47" x2="-240.47" y1="-60.605" y2="-29.026" gradientTransform="matrix(.96667 0 0 .95 262.45 67.575)" gradientUnits="userSpaceOnUse"><stop offset="0" stop-color="#4285db"/><stop offset="1" stop-color="#42b9db"/></linearGradient><radialGradient id="d" cx="0" cy="0" r="1" fx="0" fy="0" gradientTransform="rotate(90 1.455 1.72) scale(5.82072)" gradientUnits="userSpaceOnUse" spreadMethod="pad"><stop offset="0" style="stop-opacity:1;stop-color:#a4a4a4"/><stop offset="1" style="stop-opacity:1;stop-color:#626262"/></radialGradient></defs><path d="M2.538.295A.335.335 0 0 0 2.63.283c.38-.025.76-.024 1.14.002a3.62 3.62 0 0 1 1 .225c.536.22.903.603 1.101 1.148.112.328.18.665.2 1.011.028.436.018.87-.03 1.304a3.166 3.166 0 0 1-.237.878c-.225.487-.59.824-1.094 1.008a4.125 4.125 0 0 1-1.261.218 5.644 5.644 0 0 1-1.443-.109C1.13 5.774.588 5.24.385 4.366a5.025 5.025 0 0 1-.12-1.194c-.009-.429.036-.85.137-1.266C.617 1.09 1.135.584 1.957.389c.191-.047.386-.079.581-.094Z" style="fill:url(#d);fill-rule:evenodd;stroke:none;stroke-width:.35277"/><path fill="#b3b3b3" d="m3.175 3.633-.61.458c0 .534-.077.534-.458.763l1.068.076 1.068-.076c-.381-.229-.457-.229-.457-.763Z" style="stroke-width:.130027"/><path fill="#ccc" d="M2.107 4.854v.153h2.136v-.153Z" style="stroke-width:.130027"/><rect width="3.969" height="2.655" x="1.191" y="1.438" fill="#303030" rx=".311" ry=".311" style="stroke-width:.12783"/><rect width="3.835" height="2.513" x="1.257" y="1.509" fill="url(#e)" rx=".264" ry=".26" style="fill:url(#f);stroke-width:.0661186"/><path fill="#1a1a1a" d="m2.686 3.783.959-1.038.798 1.038z"/><path fill="#e6e6e6" d="m2.614 3.152-1.26.81a.265.265 0 0 0 .169.06H3.99l-1.376-.87z" opacity=".9"/><path fill="#fafbfb" d="m2.367 4.023.247-.87 1.376.87z"/><path fill="#b0b2b5" d="m3.645 2.665-.32.34v1.018h1.503a.265.265 0 0 0 .185-.075z"/><path fill="#fff" d="m3.644 2.665.4 1.358h.784a.265.265 0 0 0 .185-.075L3.645 2.665z"/><path fill="url(#a)" d="m13.287 87.56 3.746-13.172L37.847 87.56z" style="fill:url(#g)" transform="matrix(.0661 0 0 .0661 1.488 -1.765)"/><path fill="url(#b)" d="M26.578 80.43v7.13h1.208v-6.366z" opacity=".35" style="fill:url(#h)" transform="matrix(.0661 0 0 .0661 1.488 -1.765)"/><g fill="#f9f9f9"><path d="m3.915 2.173-.338.225c-.01.073-.025.146 0 .226l.338.225Z" style="stroke-width:.213123" transform="matrix(1.15033 0 0 1.15033 -.486 -.4)"/><path d="M2.505 2.06a.056.056 0 0 0-.056.056v.79c0 .031.025.056.056.056h1.016a.056.056 0 0 0 .056-.056v-.79a.056.056 0 0 0-.056-.056zm.508.17a.282.282 0 0 1 .282.281.282.282 0 0 1-.282.282.282.282 0 0 1-.282-.282.282.282 0 0 1 .282-.282z" style="stroke-width:.213123" transform="matrix(1.15033 0 0 1.15033 -.486 -.4)"/></g></svg>
